logos/architect.svg

<?xml version="1.0" encoding="UTF-8"?>
<svg width="512px" height="95px" viewBox="0 0 512 95" version="1.1" xmlns="http://www.w3.org/2000/svg" preserveAspectRatio="xMidYMid">
    <title>Architect</title>
    <g>
        <path d="M183.055479,78.8104153 L156.01473,15.0856776 C155.633829,13.7461436 153.920097,13.1720207 152.777394,13.1720207 L152.015592,13.1720207 C150.682761,13.1720207 149.159157,14.1288492 148.588128,15.2770305 L121.356606,78.8104153 C121.166478,79.0018326 121.166478,79.1926053 121.166478,79.3840226 C121.166478,79.9582744 121.737507,80.5325261 122.309181,80.5325261 L129.925912,80.5325261 C130.497586,80.5325261 131.068615,79.9582744 131.259388,79.5754398 C131.259388,79.3840226 136.591357,66.7543508 136.591357,66.7543508 L168.012145,66.7543508 L173.344115,79.7668571 C173.344115,79.7668571 173.725016,80.9153606 175.057847,80.9153606 L181.91342,80.9153606 C182.674578,80.9153606 183.43638,80.1496916 183.43638,79.3840226 C183.246252,79.1926053 183.055479,78.8104153 183.055479,78.8104153 L183.055479,78.8104153 Z M139.637921,58.3339251 L152.206365,28.0985062 L164.584036,58.3339251 L139.637921,58.3339251 L139.637921,58.3339251 Z M309.690561,56.6118143 C309.690561,44.5558142 301.883057,36.5184808 290.647444,36.5184808 C284.173416,36.5184808 279.602604,39.1975489 276.936942,42.83351 L276.936942,14.7028431 C276.936942,14.1287847 276.365912,13.7460147 275.985011,13.7460147 L268.938665,13.7460147 C268.367636,13.7460147 267.986735,14.1287847 267.796607,14.7028431 L267.796607,79.5754398 C267.796607,80.1496916 268.176863,80.5325261 268.748537,80.5325261 L275.985011,80.5325261 C276.556041,80.5325261 276.936942,80.1496916 276.936942,79.5754398 L276.936942,57.186066 C276.936942,51.2534201 281.126208,45.1298726 288.933712,45.1298726 C295.789286,45.1298726 300.359453,50.2969784 300.359453,58.1425078 L300.359453,79.7668571 C300.359453,80.3411089 300.740354,80.7239434 301.312028,80.7239434 L308.547858,80.7239434 C309.119532,80.7239434 309.500433,80.3411089 309.500433,79.7668571 L309.690561,56.6118143 L309.690561,56.6118143 Z M326.448272,16.6163067 C322.830034,16.6163067 319.973599,19.1040865 319.973599,22.931336 C319.973599,26.7586499 322.830034,29.2463652 326.448272,29.2463652 C330.256637,29.2463652 333.113072,26.5672971 333.113072,22.931336 C333.113072,19.2954394 330.256637,16.4249539 326.448272,16.6163067 Z M423.18617,58.3345696 L423.18617,56.8032315 C423.18617,56.038207 422.995397,55.4639552 422.995397,55.0811207 C421.662566,44.1734308 413.855062,36.7102203 402.619449,36.7102203 C389.670748,36.7102203 380.720542,46.4697934 380.720542,59.0995941 C380.720542,71.9213277 390.431906,81.4896124 403.762152,81.4896124 C412.141329,81.4896124 417.092398,78.8104153 420.138962,76.3226355 C420.138962,76.3226355 420.900764,75.7483837 420.329734,74.9833592 L417.282526,69.8163824 C417.092398,69.4335478 416.330596,69.4335478 415.758922,69.8163824 C413.474161,71.5384931 410.046052,73.6434384 404.714082,73.6434384 C396.71645,73.6434384 391.00358,68.6678788 389.670748,61.7787912 L422.424368,61.7787912 C422.995397,61.7787912 423.18617,61.3959566 423.18617,60.8223494 L423.18617,58.3345696 L423.18617,58.3345696 Z M389.670748,55.0811207 C391.00358,48.3834503 395.954648,44.1734308 402.619449,44.1734308 C408.71322,44.1734308 413.664289,48.5748676 414.04519,55.0811207 L389.670748,55.0811207 Z M215.999871,36.7102203 C215.999871,36.7102203 214.286139,36.5188675 213.333564,36.5188675 C205.716833,36.5188675 200.574992,40.728887 198.861259,45.7043822 L198.480358,38.2411716 C198.480358,37.6670488 197.909329,37.2843431 197.337655,37.2843431 L191.624785,37.2843431 C191.053756,37.2843431 190.482726,37.8584016 190.482726,38.4325244 L190.482726,79.3846671 C190.482726,79.9589189 191.053756,80.5325261 191.624785,80.5325261 L198.861259,80.5325261 C199.432289,80.5325261 200.003962,80.1503361 200.003962,79.5760843 L200.003962,57.7603178 C200.003962,51.6368992 204.193229,45.7043822 212.191505,45.7043822 C213.524337,45.7043822 215.238069,46.0871522 215.238069,46.0871522 C215.809098,46.0871522 216.189999,45.895735 216.380772,45.3216765 L216.951801,38.0498188 C216.951801,37.0929903 216.5709,36.7102203 215.999871,36.7102203 L215.999871,36.7102203 Z M253.895331,70.1992169 C254.275588,70.0077996 254.656489,70.1992169 254.847262,70.5820514 L257.893825,76.3226355 C258.084598,76.70547 257.893825,77.0883045 257.512924,77.2797218 C254.656489,79.1932498 250.467222,81.2981951 243.230748,81.2981951 C229.520245,81.2981951 219.999009,71.5384931 219.999009,59.0995941 C219.999009,46.2784406 230.091274,36.7102203 243.230748,36.7102203 C250.657995,36.7102203 255.03739,39.0065828 257.893825,40.9202398 C258.084598,41.1115926 258.465499,41.3029454 258.084598,41.8770683 L254.847262,47.6180391 C254.656489,48.0006158 254.275588,48.0006158 253.895331,47.8091986 C251.609925,46.4697934 248.563362,45.1302593 244.373451,45.1302593 C235.614017,45.1302593 229.520245,51.0626474 229.520245,59.0995941 C229.520245,66.945768 235.423244,72.8784139 243.99255,72.8784139 C248.563362,72.8784139 251.419797,71.5384931 253.895331,70.1992169 L253.895331,70.1992169 Z M330.256637,37.4755671 L323.020807,37.4755671 C322.449133,37.4755671 322.068232,37.8582727 322.068232,38.4323955 L322.068232,79.3846671 C322.068232,79.9582744 322.449133,80.3411089 323.020807,80.3411089 L330.256637,80.3411089 C330.828311,80.3411089 331.209212,79.9582744 331.209212,79.3846671 L331.209212,38.4323955 C331.209212,37.8582727 330.828311,37.4755671 330.256637,37.4755671 Z M374.245869,70.9642414 C374.055096,70.7728241 373.293294,70.7728241 372.532137,71.1556586 C371.008533,71.9206832 369.104028,72.8777694 365.866691,72.8777694 C360.534722,72.8777694 357.297386,70.5814069 357.297386,64.8401782 L357.297386,45.1298081 L373.293294,45.1298081 C373.864968,45.1298081 374.245869,44.7471025 374.245869,44.1729797 L374.245869,38.4320088 C374.245869,37.8579504 373.864968,37.4751804 373.293294,37.4751804 L357.297386,37.4751804 L357.297386,23.6969406 C357.297386,23.1228177 356.916485,22.7401121 356.345455,22.7401121 L349.299754,22.7401121 C348.72808,22.7401121 348.347179,23.1228177 348.347179,23.6969406 L348.347179,37.4751804 L340.349547,37.4751804 C339.777873,37.4751804 339.397617,37.8579504 339.397617,38.4320088 L339.397617,44.1729797 C339.397617,44.7471025 339.777873,45.1298081 340.349547,45.1298081 L348.157051,45.1298081 L348.157051,65.41443 C348.157051,75.5569665 354.631723,81.2975506 364.152959,81.2975506 C370.81776,81.2975506 374.816898,79.0011881 376.721403,77.6619118 C377.102304,77.2790773 377.292433,76.8962428 377.102304,76.5134083 L374.245869,70.9642414 L374.245869,70.9642414 Z M462.794718,70.3906341 C463.175619,70.1992169 463.55652,70.3906341 463.747293,70.7728241 L466.793856,76.5140528 C466.984629,76.8968873 466.793856,77.2797218 466.412955,77.471139 C463.55652,79.3846671 459.367253,81.4896124 452.130779,81.4896124 C438.420276,81.4896124 428.898396,71.7299104 428.898396,59.2910113 C428.898396,46.4697934 438.991305,36.9015731 452.130779,36.9015731 C459.557381,36.9015731 463.937421,39.1979356 466.793856,41.1115926 C466.984629,41.3029454 467.364885,41.4942982 466.984629,42.0684211 L463.747293,47.8091986 C463.55652,48.1920331 463.175619,48.1920331 462.794718,48.0006158 C460.509956,46.6611462 457.462748,45.3216121 453.273482,45.3216121 C444.514048,45.3216121 438.420276,51.2540646 438.420276,59.2910113 C438.420276,67.1371853 444.323275,73.0698312 452.892581,73.0698312 C457.462748,72.8784139 460.509956,71.7299104 462.794718,70.3906341 Z M509.068711,71.1556586 C508.878583,70.9642414 508.116781,70.9642414 507.354979,71.3470759 C505.831375,72.1121004 503.927514,73.0691867 500.690178,73.0691867 C495.358209,73.0691867 492.120872,70.7728241 492.120872,65.0315955 L492.120872,45.3211609 L508.116781,45.3211609 C508.68781,45.3211609 509.068711,44.9383909 509.068711,44.3643325 L509.068711,38.6233616 C509.068711,38.0493032 508.68781,37.6665332 508.116781,37.6665332 L492.120872,37.6665332 L492.120872,23.8882934 C492.120872,23.3141705 491.739971,22.9314649 491.168942,22.9314649 L484.122596,22.9314649 C483.551567,22.9314649 483.170666,23.3141705 483.170666,23.8882934 L483.170666,37.6665332 L475.173034,37.6665332 C474.60136,37.6665332 474.220459,38.0493032 474.220459,38.6233616 L474.220459,44.3643325 C474.220459,44.9383909 474.60136,45.3211609 475.173034,45.3211609 L482.980537,45.3211609 L482.980537,65.6058472 C482.980537,75.7483837 489.454565,81.4889679 498.976446,81.4889679 C505.641247,81.4889679 509.640385,79.1926053 511.544246,77.8533291 C511.925147,77.4704945 512.115919,77.08766 511.925147,76.7048255 L509.068711,71.1556586 L509.068711,71.1556586 Z" fill="#000000"></path>
        <path d="M43.217698,39.0056805 C45.2345693,36.1111126 49.4795889,36.0620521 51.5718682,38.8584991 L51.6781473,39.0056805 L73.4371976,70.2320865 C73.4438627,70.2417648 73.4546404,70.2478035 73.4663747,70.2484344 L73.4832818,70.2454487 L73.4832818,70.2454487 L73.4971364,70.235309 C73.5049441,70.2267578 73.5161389,70.2221048 73.5277077,70.2226024 L73.5440879,70.2269851 L73.5440879,70.2269851 L73.5570751,70.237887 L80.6085774,79.8538649 C80.9823889,80.3636665 80.9327622,81.0713302 80.4783879,81.5115255 C71.9361512,89.7959612 60.2880568,94.8959098 47.4480838,94.8959098 C34.6083041,94.8959098 22.9596941,89.7959612 14.4174574,81.5115255 C13.990175,81.0966175 13.9207953,80.4459242 14.2259217,79.9452455 L14.2875257,79.8532204 L21.3388991,70.237887 C21.3457476,70.2284274 21.3565451,70.2226182 21.3682127,70.2221158 L21.3850048,70.2252105 L21.3850048,70.2252105 L21.3987734,70.235309 C21.406501,70.2442227 21.4179119,70.2490683 21.4296922,70.2484383 L21.446256,70.2436588 L21.446256,70.2436588 L21.4590344,70.2320865 L43.217698,39.0056805 Z M47.4480838,0 C73.653106,0 94.8959098,21.2432549 94.8959098,47.4480838 C94.8959098,56.28054 92.4828923,64.5495076 88.2794467,71.6313015 C87.8413089,72.3693809 86.8257645,72.4370965 86.2670071,71.8103842 L86.202215,71.7318439 L79.3015263,62.6843172 C79.0108556,62.3027717 78.9573619,61.7929702 79.1500682,61.354064 C81.01977,57.0984137 82.0574191,52.3941896 82.0574191,47.4480838 C82.0574191,28.333943 66.562289,12.8388773 47.4480838,12.8388773 C28.333943,12.8388773 12.8388773,28.333943 12.8388773,47.4480838 C12.8388773,52.3941896 13.876462,57.0977692 15.7458416,61.3534195 C15.9237838,61.7591586 15.892056,62.2247564 15.6574508,62.5940819 L15.5945769,62.6843172 L8.69395259,71.7318439 C8.1527638,72.4414412 7.07225529,72.398904 6.61678535,71.6313015 C2.41340422,64.5495076 0,56.28054 0,47.4480838 C0,21.2432549 21.2432549,0 47.4480838,0 Z" fill="#000000"></path>
    </g>
</svg>

<svg preserveAspectRatio="xMidYMid" viewBox="0 0 512 95" xmlns="http://www.w3.org/2000/svg">
  <path d="m183.055 78.81-27.04-63.724c-.381-1.34-2.095-1.914-3.238-1.914h-.761c-1.333 0-2.857.957-3.428 2.105L121.357 78.81c-.19.192-.19.383-.19.574 0 .574.57 1.149 1.142 1.149h7.617c.572 0 1.143-.575 1.333-.958 0-.191 5.332-12.82 5.332-12.82h31.421l5.332 13.012s.381 1.148 1.714 1.148h6.855c.762 0 1.523-.765 1.523-1.531-.19-.191-.38-.574-.38-.574Zm-43.417-20.476 12.568-30.235 12.378 30.235h-24.946Zm170.053-1.722c0-12.056-7.808-20.094-19.044-20.094-6.474 0-11.044 2.68-13.71 6.316V14.703c0-.574-.571-.957-.952-.957h-7.046c-.571 0-.952.383-1.142.957v64.872c0 .575.38.958.952.958h7.236c.571 0 .952-.383.952-.958V57.186c0-5.933 4.19-12.056 11.997-12.056 6.855 0 11.425 5.167 11.425 13.013v21.624c0 .574.381.957.953.957h7.236c.572 0 .952-.383.952-.957l.19-23.155Zm16.757-39.996c-3.618 0-6.474 2.488-6.474 6.315 0 3.828 2.856 6.315 6.474 6.315 3.809 0 6.665-2.679 6.665-6.315 0-3.636-2.856-6.506-6.665-6.315Zm96.738 41.719v-1.532c0-.765-.19-1.339-.19-1.722-1.333-10.908-9.14-18.37-20.377-18.37-12.948 0-21.898 9.759-21.898 22.389 0 12.821 9.71 22.39 23.041 22.39 8.38 0 13.33-2.68 16.377-5.167 0 0 .762-.575.19-1.34l-3.046-5.167c-.19-.382-.952-.382-1.524 0-2.285 1.722-5.713 3.827-11.045 3.827-7.998 0-13.71-4.975-15.043-11.864h32.753c.571 0 .762-.383.762-.957v-2.487Zm-33.515-3.254c1.333-6.698 6.284-10.908 12.948-10.908 6.094 0 11.045 4.402 11.426 10.908h-24.374ZM216 36.711s-1.714-.192-2.666-.192c-7.617 0-12.759 4.21-14.473 9.185l-.38-7.463c0-.574-.572-.957-1.143-.957h-5.713c-.571 0-1.142.574-1.142 1.149v40.952c0 .574.57 1.148 1.142 1.148h7.236c.571 0 1.143-.383 1.143-.957V57.76c0-6.123 4.19-12.056 12.188-12.056 1.332 0 3.046.383 3.046.383.571 0 .952-.191 1.143-.765l.57-7.272c0-.957-.38-1.34-.951-1.34Zm37.895 33.488c.38-.191.761 0 .952.383l3.047 5.74c.19.383 0 .766-.381.958-2.857 1.913-7.046 4.018-14.282 4.018-13.71 0-23.232-9.76-23.232-22.198 0-12.822 10.092-22.39 23.232-22.39 7.427 0 11.806 2.297 14.663 4.21.19.192.571.383.19.957l-3.237 5.741c-.19.383-.571.383-.952.191-2.285-1.34-5.332-2.679-9.522-2.679-8.759 0-14.853 5.933-14.853 13.97 0 7.846 5.903 13.778 14.473 13.778 4.57 0 7.427-1.34 9.902-2.679Zm76.362-32.723h-7.236c-.572 0-.953.382-.953.956v40.953c0 .573.381.956.953.956h7.236c.571 0 .952-.383.952-.956V38.432c0-.574-.38-.956-.952-.956Zm43.989 33.488c-.19-.191-.953-.191-1.714.192-1.523.765-3.428 1.722-6.665 1.722-5.332 0-8.57-2.297-8.57-8.038V45.13h15.996c.572 0 .953-.383.953-.957v-5.741c0-.574-.381-.957-.953-.957h-15.996V23.697c0-.574-.38-.957-.952-.957H349.3c-.572 0-.953.383-.953.957v13.778h-7.997c-.572 0-.952.383-.952.957v5.741c0 .574.38.957.952.957h7.807v20.284c0 10.143 6.475 15.884 15.996 15.884 6.665 0 10.664-2.297 12.568-3.636.381-.383.571-.766.381-1.149l-2.856-5.549Zm88.549-.573c.38-.192.762 0 .952.382l3.047 5.741c.19.383 0 .766-.381.957-2.856 1.914-7.046 4.019-14.282 4.019-13.71 0-23.233-9.76-23.233-22.199 0-12.821 10.093-22.39 23.233-22.39 7.426 0 11.806 2.297 14.663 4.21.19.192.57.383.19.957l-3.237 5.741c-.19.383-.571.383-.952.192-2.285-1.34-5.332-2.68-9.522-2.68-8.759 0-14.853 5.933-14.853 13.97 0 7.846 5.903 13.779 14.473 13.779 4.57-.192 7.617-1.34 9.902-2.68Zm46.274.765c-.19-.192-.952-.192-1.714.191-1.524.765-3.427 1.722-6.665 1.722-5.332 0-8.57-2.296-8.57-8.037v-19.71h15.997c.57 0 .952-.384.952-.958v-5.74c0-.575-.381-.957-.952-.957H492.12V23.888c0-.574-.381-.957-.952-.957h-7.046c-.571 0-.952.383-.952.957v13.779h-7.998c-.572 0-.953.382-.953.956v5.741c0 .574.381.957.953.957h7.808v20.285c0 10.142 6.474 15.883 15.995 15.883 6.665 0 10.664-2.296 12.568-3.636.381-.383.572-.765.381-1.148l-2.856-5.55Z"/>
  <path d="M43.218 39.006c2.017-2.895 6.262-2.944 8.354-.148l.106.148 21.76 31.226c.006.01.017.016.028.016l.017-.003.014-.01a.04.04 0 0 1 .03-.012l.017.004.013.01 7.052 9.617c.373.51.324 1.217-.13 1.658-8.543 8.284-20.19 13.384-33.03 13.384s-24.49-5.1-33.032-13.384a1.264 1.264 0 0 1-.191-1.567l.062-.092 7.05-9.615a.038.038 0 0 1 .03-.016l.017.003.014.01c.008.01.019.014.03.013l.017-.004.013-.012 21.759-31.226ZM47.448 0c26.205 0 47.448 21.243 47.448 47.448 0 8.833-2.413 17.102-6.617 24.183-.438.738-1.453.806-2.012.18l-.065-.08-6.9-9.047a1.319 1.319 0 0 1-.152-1.33 34.487 34.487 0 0 0 2.907-13.906c0-19.114-15.495-34.61-34.609-34.61-19.114 0-34.61 15.496-34.61 34.61a34.49 34.49 0 0 0 2.908 13.905c.178.406.146.872-.089 1.241l-.062.09-6.901 9.048c-.541.71-1.622.667-2.077-.1A47.228 47.228 0 0 1 0 47.447C0 21.243 21.243 0 47.448 0Z"/>
</svg>
